; generated by Slic3r 1.37.2-prusa3d on 2017-11-20 at 19:00:11

; 

; external perimeters extrusion width = 0.45mm
; perimeters extrusion width = 0.45mm
; infill extrusion width = 0.45mm
; solid infill extrusion width = 0.45mm
; top infill extrusion width = 0.40mm
; first layer extrusion width = 0.42mm

M107
M83  ; Extruder en mode relatif
M104 S247 ; fixe temperature de l’extrudeur
M140 S100 ; fixe temperature du plateau
M190 S100 ; attente de la temperature de consigne plateau
M109 S247 ; attente de la temperature de consigne extrudeur
G28 ; home all
G1 X50 Y20 Z10 F1500
G1 X50 Y20 Z0.2 F1500
G1 X100 Y20 Z0.2 E15 F400
M117 Printing…
; Filament gcode

G21 ; set units to millimeters
G90 ; use absolute coordinates
M83 ; use relative distances for extrusion
G1 Z0.200 F7200.000
G1 E-0.60000 F3000.00000
G1 Z0.400 F7200.000
G1 X139.709 Y114.787 F7200.000
G1 Z0.200 F7200.000
G1 E0.60000 F3000.00000
G1 F2061
G1 X140.016 Y114.552 E0.01210
G1 X140.231 Y114.470 E0.00722
G1 X140.489 Y114.434 E0.00817
G1 X159.538 Y114.436 E0.59726
G1 X159.781 Y114.473 E0.00773
G1 X159.988 Y114.554 E0.00695
G1 X160.284 Y114.780 E0.01167
G1 X160.417 Y114.959 E0.00701
G1 X160.512 Y115.171 E0.00727
G1 X160.565 Y115.487 E0.01007
G1 X160.566 Y134.511 E0.59648
G1 X160.514 Y134.826 E0.01001
G1 X160.424 Y135.028 E0.00692
G1 X160.287 Y135.217 E0.00733
G1 X159.984 Y135.448 E0.01194
G1 X159.769 Y135.530 E0.00722
G1 X159.512 Y135.565 E0.00813
G1 X140.489 Y135.566 E0.59647
G1 X140.173 Y135.513 E0.01003
G1 X139.963 Y135.420 E0.00721
G1 X139.784 Y135.288 E0.00699
G1 X139.547 Y134.971 E0.01240
G1 X139.470 Y134.769 E0.00679
G1 X139.435 Y134.512 E0.00812
G1 X139.434 Y115.489 E0.59648
G1 X139.484 Y115.180 E0.00982
G1 X139.574 Y114.974 E0.00704
G1 X139.674 Y114.835 E0.00535
G1 X139.894 Y115.175 F7200.000
G1 F2061
G1 X139.999 Y115.030 E0.00562
G1 X140.176 Y114.894 E0.00699
G1 X140.343 Y114.831 E0.00560
G1 X140.499 Y114.811 E0.00495
G1 X159.522 Y114.813 E0.59644
G1 X159.697 Y114.841 E0.00557
G1 X159.820 Y114.892 E0.00417
G1 X160.002 Y115.031 E0.00716
G1 X160.083 Y115.136 E0.00417
G1 X160.158 Y115.301 E0.00568
G1 X160.188 Y115.501 E0.00633
G1 X160.189 Y134.498 E0.59565
G1 X160.158 Y134.698 E0.00633
G1 X160.089 Y134.854 E0.00536
G1 X160.003 Y134.969 E0.00450
G1 X159.824 Y135.106 E0.00705
G1 X159.657 Y135.169 E0.00560
G1 X159.502 Y135.188 E0.00490
G1 X140.502 Y135.189 E0.59574
G1 X140.303 Y135.158 E0.00632
G1 X140.139 Y135.085 E0.00563
G1 X140.034 Y135.005 E0.00413
G1 X139.890 Y134.813 E0.00755
G1 X139.831 Y134.658 E0.00520
G1 X139.812 Y134.502 E0.00491
G1 X139.811 Y115.502 E0.59574
G1 X139.842 Y115.300 E0.00640
G1 X139.871 Y115.231 E0.00235
G1 X140.224 Y115.350 F7200.000
G1 F1260
G1 X140.278 Y115.278 E0.00249
G1 X140.348 Y115.237 E0.00226
G1 X140.514 Y115.213 E0.00466
G1 X159.486 Y115.213 E0.52781
G1 X159.651 Y115.239 E0.00464
G1 X159.717 Y115.283 E0.00220
G1 X159.765 Y115.347 E0.00222
G1 X159.794 Y115.513 E0.00470
G1 X159.794 Y134.487 E0.52783
G1 X159.771 Y134.657 E0.00478
G1 X159.729 Y134.729 E0.00234
G1 X159.663 Y134.782 E0.00236
G1 X159.488 Y134.813 E0.00495
G1 X140.512 Y134.813 E0.52790
G1 X140.336 Y134.786 E0.00496
G1 X140.264 Y134.736 E0.00244
G1 X140.218 Y134.661 E0.00243
G1 X140.194 Y134.487 E0.00489
G1 X140.205 Y115.406 E0.53083
G1 X140.173 Y115.276 F7200.000
G1 Z0.400 F7200.000
M104 S240 ; set temperature
G1 X140.389 Y115.226 F7200.000
G1 F1200
G1 X140.514 Y115.213 E0.00350
G1 X159.486 Y115.213 E0.52781
G1 X159.651 Y115.240 E0.00465
G1 X159.717 Y115.283 E0.00219
G1 X159.765 Y115.347 E0.00222
G1 X159.794 Y115.514 E0.00472
G1 X159.794 Y134.487 E0.52781
G1 X159.771 Y134.657 E0.00478
G1 X159.729 Y134.729 E0.00234
G1 X159.663 Y134.782 E0.00236
G1 X159.488 Y134.813 E0.00495
G1 X140.512 Y134.813 E0.52790
G1 X140.335 Y134.786 E0.00499
G1 X140.265 Y134.736 E0.00239
G1 X140.218 Y134.659 E0.00251
G1 X140.194 Y134.487 E0.00483
G1 X140.194 Y115.513 E0.52787
G1 X140.227 Y115.342 E0.00483
G1 X140.278 Y115.278 E0.00229
G1 X140.333 Y115.246 E0.00176
G1 X140.420 Y115.104 F7200.000
G1 Z0.600 F7200.000
G1 X140.389 Y115.226 F7200.000
G1 F1200
G1 X140.514 Y115.213 E0.00350
G1 X159.486 Y115.213 E0.52781
G1 X159.652 Y115.240 E0.00467
G1 X159.717 Y115.283 E0.00218
G1 X159.765 Y115.347 E0.00222
G1 X159.794 Y115.513 E0.00470
G1 X159.794 Y134.487 E0.52783
G1 X159.771 Y134.657 E0.00478
G1 X159.729 Y134.729 E0.00234
G1 X159.663 Y134.782 E0.00236
G1 X159.488 Y134.813 E0.00495
G1 X140.512 Y134.813 E0.52790
G1 X140.340 Y134.788 E0.00484
G1 X140.264 Y134.735 E0.00259
G1 X140.219 Y134.662 E0.00237
G1 X140.194 Y134.487 E0.00492
G1 X140.194 Y115.513 E0.52787
G1 X140.227 Y115.342 E0.00483
G1 X140.278 Y115.278 E0.00229
G1 X140.333 Y115.246 E0.00176
G1 X140.420 Y115.104 F7200.000
G1 Z0.800 F7200.000
G1 X140.389 Y115.226 F7200.000
G1 F1200
G1 X140.514 Y115.213 E0.00350
G1 X159.486 Y115.213 E0.52781
G1 X159.652 Y115.240 E0.00468
G1 X159.717 Y115.283 E0.00216
G1 X159.765 Y115.347 E0.00222
G1 X159.794 Y115.515 E0.00475
G1 X159.794 Y134.487 E0.52778
G1 X159.771 Y134.657 E0.00478
G1 X159.729 Y134.729 E0.00234
G1 X159.663 Y134.782 E0.00236
G1 X159.488 Y134.813 E0.00495
G1 X140.512 Y134.813 E0.52790
G1 X140.335 Y134.786 E0.00499
G1 X140.264 Y134.736 E0.00241
G1 X140.219 Y134.662 E0.00240
G1 X140.194 Y134.487 E0.00492
G1 X140.194 Y115.513 E0.52787
G1 X140.227 Y115.342 E0.00483
G1 X140.278 Y115.278 E0.00229
G1 X140.333 Y115.246 E0.00176
G1 X140.420 Y115.104 F7200.000
G1 Z1.000 F7200.000
G1 X140.389 Y115.226 F7200.000
G1 F1200
G1 X140.514 Y115.213 E0.00350
G1 X159.486 Y115.213 E0.52781
G1 X159.652 Y115.240 E0.00469
G1 X159.717 Y115.283 E0.00215
G1 X159.765 Y115.347 E0.00222
G1 X159.794 Y115.513 E0.00470
G1 X159.794 Y134.487 E0.52783
G1 X159.771 Y134.657 E0.00478
G1 X159.729 Y134.729 E0.00234
G1 X159.663 Y134.782 E0.00236
G1 X159.488 Y134.813 E0.00495
G1 X140.512 Y134.813 E0.52790
G1 X140.335 Y134.786 E0.00499
G1 X140.264 Y134.736 E0.00241
G1 X140.219 Y134.662 E0.00240
G1 X140.194 Y134.487 E0.00492
G1 X140.194 Y115.513 E0.52787
G1 X140.227 Y115.342 E0.00483
G1 X140.278 Y115.278 E0.00229
G1 X140.333 Y115.246 E0.00176
G1 X140.420 Y115.104 F7200.000
G1 Z1.200 F7200.000
G1 X140.389 Y115.226 F7200.000
G1 F1200
G1 X140.514 Y115.213 E0.00350
G1 X159.486 Y115.213 E0.52781
G1 X159.653 Y115.240 E0.00470
G1 X159.717 Y115.283 E0.00214
G1 X159.765 Y115.347 E0.00222
G1 X159.794 Y115.516 E0.00477
G1 X159.794 Y134.487 E0.52776
G1 X159.771 Y134.657 E0.00478
G1 X159.729 Y134.729 E0.00234
G1 X159.663 Y134.782 E0.00236
G1 X159.488 Y134.813 E0.00495
G1 X140.512 Y134.813 E0.52790
G1 X140.335 Y134.786 E0.00499
G1 X140.266 Y134.737 E0.00235
G1 X140.215 Y134.651 E0.00279
G1 X140.194 Y134.487 E0.00458
G1 X140.194 Y115.513 E0.52787
G1 X140.227 Y115.342 E0.00483
G1 X140.278 Y115.278 E0.00229
G1 X140.333 Y115.246 E0.00176
G1 X140.420 Y115.104 F7200.000
G1 Z1.400 F7200.000
G1 X140.389 Y115.226 F7200.000
G1 F1200
G1 X140.514 Y115.213 E0.00350
G1 X159.486 Y115.213 E0.52781
G1 X159.653 Y115.241 E0.00471
G1 X159.717 Y115.283 E0.00213
G1 X159.765 Y115.347 E0.00222
G1 X159.794 Y115.513 E0.00470
G1 X159.794 Y134.487 E0.52783
G1 X159.775 Y134.643 E0.00438
G1 X159.729 Y134.729 E0.00272
G1 X159.650 Y134.788 E0.00275
G1 X159.488 Y134.813 E0.00456
G1 X140.512 Y134.813 E0.52790
G1 X140.349 Y134.791 E0.00459
G1 X140.265 Y134.735 E0.00280
G1 X140.215 Y134.648 E0.00279
G1 X140.194 Y134.487 E0.00452
G1 X140.194 Y115.513 E0.52787
G1 X140.227 Y115.342 E0.00483
G1 X140.278 Y115.278 E0.00229
G1 X140.333 Y115.246 E0.00176
G1 X140.420 Y115.104 F7200.000
G1 Z1.600 F7200.000
G1 X140.389 Y115.226 F7200.000
G1 F1200
G1 X140.514 Y115.213 E0.00350
G1 X159.486 Y115.213 E0.52781
G1 X159.654 Y115.241 E0.00472
G1 X159.717 Y115.283 E0.00212
G1 X159.785 Y115.407 E0.00393
G1 X159.794 Y115.517 E0.00307
G1 X159.794 Y134.487 E0.52774
G1 X159.771 Y134.657 E0.00478
G1 X159.729 Y134.729 E0.00234
G1 X159.663 Y134.782 E0.00236
G1 X159.488 Y134.813 E0.00495
G1 X140.512 Y134.813 E0.52790
G1 X140.335 Y134.786 E0.00499
G1 X140.267 Y134.737 E0.00233
G1 X140.214 Y134.646 E0.00293
G1 X140.194 Y134.487 E0.00445
G1 X140.194 Y115.513 E0.52787
G1 X140.227 Y115.342 E0.00483
G1 X140.278 Y115.278 E0.00229
G1 X140.333 Y115.246 E0.00176
G1 X140.420 Y115.104 F7200.000
G1 Z1.800 F7200.000
G1 X140.389 Y115.226 F7200.000
G1 F1200
G1 X140.514 Y115.213 E0.00350
G1 X159.486 Y115.213 E0.52781
G1 X159.654 Y115.241 E0.00473
G1 X159.717 Y115.283 E0.00211
G1 X159.765 Y115.347 E0.00222
G1 X159.794 Y115.513 E0.00470
G1 X159.794 Y134.487 E0.52783
G1 X159.771 Y134.657 E0.00478
G1 X159.729 Y134.729 E0.00234
G1 X159.663 Y134.782 E0.00236
G1 X159.488 Y134.813 E0.00495
G1 X140.512 Y134.813 E0.52790
G1 X140.335 Y134.786 E0.00499
G1 X140.267 Y134.738 E0.00232
G1 X140.214 Y134.644 E0.00300
G1 X140.194 Y134.487 E0.00439
G1 X140.194 Y115.513 E0.52787
G1 X140.227 Y115.342 E0.00483
G1 X140.278 Y115.278 E0.00229
G1 X140.333 Y115.246 E0.00176
G1 X140.420 Y115.104 F7200.000
G1 Z2.000 F7200.000
G1 X140.389 Y115.226 F7200.000
G1 F1200
G1 X140.514 Y115.213 E0.00350
G1 X159.486 Y115.213 E0.52781
G1 X159.654 Y115.241 E0.00474
G1 X159.717 Y115.283 E0.00210
G1 X159.765 Y115.347 E0.00222
G1 X159.794 Y115.513 E0.00470
G1 X159.794 Y134.487 E0.52783
G1 X159.771 Y134.657 E0.00478
G1 X159.729 Y134.729 E0.00234
G1 X159.663 Y134.782 E0.00236
G1 X159.488 Y134.813 E0.00495
G1 X140.512 Y134.813 E0.52790
G1 X140.335 Y134.786 E0.00499
G1 X140.267 Y134.738 E0.00231
G1 X140.213 Y134.642 E0.00307
G1 X140.194 Y134.487 E0.00432
G1 X140.194 Y115.513 E0.52787
G1 X140.227 Y115.342 E0.00483
G1 X140.278 Y115.278 E0.00229
G1 X140.333 Y115.246 E0.00176
G1 X140.420 Y115.104 F7200.000
G1 Z2.200 F7200.000
G1 X140.389 Y115.226 F7200.000
G1 F1200
G1 X140.514 Y115.213 E0.00350
G1 X159.486 Y115.213 E0.52781
G1 X159.655 Y115.241 E0.00475
G1 X159.717 Y115.283 E0.00209
G1 X159.765 Y115.347 E0.00222
G1 X159.794 Y115.513 E0.00470
G1 X159.794 Y134.487 E0.52783
G1 X159.771 Y134.657 E0.00478
G1 X159.729 Y134.729 E0.00234
G1 X159.663 Y134.782 E0.00236
G1 X159.488 Y134.813 E0.00495
G1 X140.512 Y134.813 E0.52790
G1 X140.335 Y134.786 E0.00499
G1 X140.267 Y134.738 E0.00231
G1 X140.212 Y134.639 E0.00314
G1 X140.194 Y134.487 E0.00426
G1 X140.194 Y115.513 E0.52787
G1 X140.227 Y115.342 E0.00483
G1 X140.278 Y115.278 E0.00229
G1 X140.333 Y115.246 E0.00176
G1 X140.420 Y115.104 F7200.000
G1 Z2.400 F7200.000
G1 X140.389 Y115.226 F7200.000
G1 F1200
G1 X140.514 Y115.213 E0.00350
G1 X159.486 Y115.213 E0.52781
G1 X159.655 Y115.241 E0.00476
G1 X159.717 Y115.283 E0.00208
G1 X159.783 Y115.398 E0.00369
G1 X159.794 Y115.519 E0.00336
G1 X159.794 Y134.487 E0.52769
G1 X159.771 Y134.657 E0.00478
G1 X159.729 Y134.729 E0.00234
G1 X159.663 Y134.782 E0.00236
G1 X159.488 Y134.813 E0.00495
G1 X140.512 Y134.813 E0.52790
G1 X140.335 Y134.786 E0.00499
G1 X140.267 Y134.738 E0.00230
G1 X140.212 Y134.637 E0.00322
G1 X140.194 Y134.487 E0.00419
G1 X140.194 Y115.513 E0.52787
G1 X140.227 Y115.342 E0.00483
G1 X140.278 Y115.278 E0.00229
G1 X140.333 Y115.246 E0.00176
G1 X140.420 Y115.104 F7200.000
G1 Z2.600 F7200.000
G1 X140.389 Y115.226 F7200.000
G1 F1200
G1 X140.514 Y115.213 E0.00350
G1 X159.486 Y115.213 E0.52781
G1 X159.655 Y115.242 E0.00477
G1 X159.717 Y115.283 E0.00207
G1 X159.765 Y115.347 E0.00222
G1 X159.794 Y115.513 E0.00470
G1 X159.794 Y134.487 E0.52783
G1 X159.771 Y134.657 E0.00478
G1 X159.729 Y134.729 E0.00234
G1 X159.663 Y134.782 E0.00236
G1 X159.488 Y134.813 E0.00495
G1 X140.512 Y134.813 E0.52790
G1 X140.362 Y134.795 E0.00421
G1 X140.265 Y134.735 E0.00317
G1 X140.211 Y134.635 E0.00317
G1 X140.194 Y134.487 E0.00413
G1 X140.194 Y115.513 E0.52787
G1 X140.227 Y115.342 E0.00483
G1 X140.278 Y115.278 E0.00229
G1 X140.333 Y115.246 E0.00176
G1 X140.420 Y115.104 F7200.000
G1 Z2.800 F7200.000
G1 X140.389 Y115.226 F7200.000
G1 F1200
G1 X140.514 Y115.213 E0.00350
G1 X159.559 Y115.219 E0.52984
G1 X159.655 Y115.242 E0.00275
G1 X159.717 Y115.283 E0.00206
G1 X159.781 Y115.394 E0.00357
G1 X159.794 Y115.519 E0.00350
G1 X159.794 Y134.487 E0.52767
G1 X159.771 Y134.657 E0.00478
G1 X159.729 Y134.729 E0.00234
G1 X159.663 Y134.782 E0.00236
G1 X159.488 Y134.813 E0.00495
G1 X140.512 Y134.813 E0.52790
G1 X140.335 Y134.786 E0.00499
G1 X140.268 Y134.739 E0.00228
G1 X140.211 Y134.632 E0.00336
G1 X140.194 Y134.487 E0.00406
G1 X140.194 Y115.513 E0.52787
G1 X140.227 Y115.342 E0.00483
G1 X140.278 Y115.278 E0.00229
G1 X140.333 Y115.246 E0.00176
G1 X140.420 Y115.104 F7200.000
G1 Z3.000 F7200.000
G1 X140.389 Y115.226 F7200.000
G1 F1200
G1 X140.514 Y115.213 E0.00350
G1 X159.557 Y115.219 E0.52978
G1 X159.656 Y115.242 E0.00282
G1 X159.717 Y115.283 E0.00205
G1 X159.765 Y115.347 E0.00222
G1 X159.794 Y115.513 E0.00470
G1 X159.794 Y134.487 E0.52783
G1 X159.771 Y134.657 E0.00478
G1 X159.729 Y134.729 E0.00234
G1 X159.663 Y134.782 E0.00236
G1 X159.488 Y134.813 E0.00495
G1 X140.512 Y134.813 E0.52790
G1 X140.335 Y134.786 E0.00499
G1 X140.264 Y134.736 E0.00241
G1 X140.219 Y134.662 E0.00240
G1 X140.194 Y134.487 E0.00492
G1 X140.194 Y115.513 E0.52787
G1 X140.227 Y115.342 E0.00483
G1 X140.278 Y115.278 E0.00229
G1 X140.333 Y115.246 E0.00176
G1 X140.420 Y115.104 F7200.000
G1 Z3.200 F7200.000
G1 X140.389 Y115.226 F7200.000
G1 F1200
G1 X140.514 Y115.213 E0.00350
G1 X159.555 Y115.219 E0.52972
G1 X159.656 Y115.242 E0.00289
G1 X159.717 Y115.283 E0.00204
G1 X159.780 Y115.390 E0.00344
G1 X159.794 Y115.520 E0.00364
G1 X159.794 Y134.487 E0.52766
G1 X159.771 Y134.657 E0.00478
G1 X159.729 Y134.729 E0.00234
G1 X159.663 Y134.782 E0.00236
G1 X159.488 Y134.813 E0.00495
G1 X140.512 Y134.813 E0.52790
G1 X140.335 Y134.786 E0.00499
G1 X140.268 Y134.739 E0.00227
G1 X140.210 Y134.628 E0.00350
G1 X140.194 Y134.487 E0.00393
G1 X140.194 Y115.513 E0.52787
G1 X140.227 Y115.342 E0.00483
G1 X140.278 Y115.278 E0.00229
G1 X140.333 Y115.246 E0.00176
G1 X140.420 Y115.104 F7200.000
G1 Z3.400 F7200.000
G1 X140.384 Y115.227 F7200.000
G1 F1200
G1 X140.514 Y115.213 E0.00363
G1 X159.552 Y115.219 E0.52965
G1 X159.656 Y115.242 E0.00296
G1 X159.717 Y115.283 E0.00203
G1 X159.765 Y115.347 E0.00222
G1 X159.794 Y115.513 E0.00470
G1 X159.794 Y134.487 E0.52783
G1 X159.780 Y134.620 E0.00372
G1 X159.729 Y134.729 E0.00336
G1 X159.628 Y134.796 E0.00337
G1 X159.488 Y134.813 E0.00393
G1 X140.512 Y134.813 E0.52790
G1 X140.371 Y134.797 E0.00395
G1 X140.265 Y134.735 E0.00343
G1 X140.209 Y134.625 E0.00342
G1 X140.194 Y134.487 E0.00386
G1 X140.194 Y115.513 E0.52787
G1 X140.227 Y115.342 E0.00483
G1 X140.274 Y115.283 E0.00212
G1 X140.331 Y115.254 E0.00176
G1 X140.416 Y115.101 F7200.000
G1 Z3.600 F7200.000
G1 X140.387 Y115.227 F7200.000
G1 F1200
G1 X140.514 Y115.213 E0.00356
G1 X159.550 Y115.219 E0.52959
G1 X159.656 Y115.242 E0.00303
G1 X159.717 Y115.283 E0.00203
G1 X159.779 Y115.385 E0.00332
G1 X159.794 Y115.520 E0.00379
G1 X159.794 Y134.487 E0.52764
G1 X159.771 Y134.657 E0.00478
G1 X159.729 Y134.729 E0.00234
G1 X159.663 Y134.782 E0.00236
G1 X159.488 Y134.813 E0.00495
G1 X140.512 Y134.813 E0.52790
G1 X140.335 Y134.786 E0.00499
G1 X140.269 Y134.739 E0.00225
G1 X140.209 Y134.623 E0.00364
G1 X140.194 Y134.487 E0.00379
G1 X140.194 Y115.513 E0.52787
G1 X140.227 Y115.342 E0.00483
G1 X140.274 Y115.283 E0.00211
G1 X140.333 Y115.253 E0.00184
G1 X140.418 Y115.103 F7200.000
G1 Z3.800 F7200.000
G1 X140.389 Y115.226 F7200.000
G1 F1200
G1 X140.514 Y115.213 E0.00350
G1 X159.548 Y115.219 E0.52952
G1 X159.657 Y115.243 E0.00311
G1 X159.717 Y115.283 E0.00202
G1 X159.765 Y115.347 E0.00222
G1 X159.794 Y115.513 E0.00470
G1 X159.794 Y134.487 E0.52783
G1 X159.781 Y134.615 E0.00359
G1 X159.729 Y134.729 E0.00349
G1 X159.623 Y134.797 E0.00349
G1 X159.488 Y134.813 E0.00380
G1 X140.512 Y134.813 E0.52790
G1 X140.376 Y134.798 E0.00381
G1 X140.265 Y134.735 E0.00355
G1 X140.208 Y134.620 E0.00355
G1 X140.194 Y134.487 E0.00372
G1 X140.194 Y115.513 E0.52787
G1 X140.227 Y115.342 E0.00483
G1 X140.274 Y115.283 E0.00210
G1 X140.335 Y115.253 E0.00190
G1 X140.420 Y115.104 F7200.000
G1 Z4.000 F7200.000
G1 X140.389 Y115.226 F7200.000
G1 F1200
G1 X140.514 Y115.213 E0.00350
G1 X159.545 Y115.218 E0.52946
G1 X159.657 Y115.243 E0.00318
G1 X159.717 Y115.283 E0.00201
G1 X159.765 Y115.347 E0.00222
G1 X159.794 Y115.513 E0.00470
